X:1
T:James Gibb editions
T:Herr,wenn ich nur dich - Schütz
T:#
%%score [ 1 2 3 ] 4
L:1/8
Q:1/4=108
M:4/4
K:C
V:1 treble nm="Soprano I" snm="Soprano I"
V:2 treble nm="Soprano II" snm="Soprano II"
V:3 treble-8 nm="Tenor" snm="Tenor"
V:4 bass nm="Continuo" snm="Continuo"
V:1
 z8 | z8 | z8 | z8 | z8 |[M:4/4] z8 | z8 | z8 | z8 | z8 | z8 | z8 |[M:4/4] z8 | z8 | z8 | z8 | z8 | %17
w: |||||||||||||||||
 z8 | z8 ||[K:F][M:4/4][K:treble] A4 z AAA | BGGG A4 | G8 | F8 | c4 z ccc | dBBB c4 | A8 | G4 z4 | %27
w: ||Herr, wann ich nur|dich, wann ich nur dich|ha-|be,|Herr, wann ich nur|dich, wann uch nur dich|ha\--|be,|
 z8 | z8 | z8 | z4 z2 E2 | F2 GG A2 B2 | c4 B2 A2 | G8 | F4 z ccc | dBBB c4 | B4 AAAA | BGGG A4 | %38
w: |||so|fra- ge ich nichts nach|Hirn- mel und|Er-|den, wann ich nur|dich, wann ich nur dich|ha- be, wann ich nur|dich, wann ich nur dich|
 E8 | D8 | z8 | z4 A2 AA | G2 G2 G4 | F2 E2 D4 | GABc ABcd | c4 CDEF | D4 EFGA | F2 FG A2 B2 | G8 | %49
w: ha-|be,||wann mir gleich|Leib und See-|le ver- schmacht,|so bist du doch, so bist du doch,|Gott, so bist du doch,|Gott, so bist du doch,|Gott, so bist du doch,|Gott,|
 z8 | z4 GABc | A2 FG AFGA | B2 G2 ^F2 F2 | DE=FG E4 | z2 AB cABc | d2 DE FDEF | G2 Bc dBcd | %57
w: |so bist du doch,|Gott, all- zeit mei- nes Her- zens|Trost und mein Theil,|so bist du doch, Gott,|all- zeit mei- nes Her- zens|Trost, all- zeit mei- nes Her- zens|Trost, all- zeit mei- nes Her- zens|
 _e2 c2 A4 | G4 z4 | z4 GABc | A2 FG AFGA | B2 A2 G4 | F4 CDEF | D4 z4 | z4 EFGA | F2 AB cABc | %66
w: Trost und mein|Theil,|so bist du doch,|Gott, all- zeit mei- nes Her- zens|Trost und mein|Theil, so bist du doch,|Gott,|so bist du doch,|Gott, all- zeit mei- nes Her- zens|
 d2 B4 A2 | B4 z4 | z2 GA BGAB | c2 _e2 d4 | c4 GABc | A2 cd ecde | f4 e2 (d2- | d2 ^c=B c4) | %74
w: Trost und mein|Theil,|all- zeit mei- nes Her- zens|Trost und mein|Theil, so bist du doch,|Gott, all- zeit mei- nes Her- zens|Trost und mein||
[Q:1/4=105] d8- |[Q:1/4=102] d4[Q:1/4=101] z2[Q:1/4=100] d2 |[Q:1/4=97] B8 | %77
w: Theil,|* und|mein|
[Q:1/4=93] !fermata!A8 |] %78
w: Theil.|
V:2
 z8 | z8 | z8 | z8 | z8 |[M:4/4] z8 | z8 | z8 | z8 | z8 | z8 | z8 |[M:4/4] z8 | z8 | z8 | z8 | z8 | %17
w: |||||||||||||||||
 z8 | z8 ||[K:F][M:4/4][K:treble] ^F4 z FFF | GEEE F2 (F2- | F2 ED E4) | F8 | A4 z AAA | FGGG E4 | %25
w: ||Herr, wann ich nur|dich wann ich nur dich ha\-||be,|Herr, wann ich nur|dich, wann uch nur dich|
 (^F2 G4 F2) | G4 z2 C2 | D2 EE F2 G2 | A4 G2 F2 | E8 | D4 z2 ^C2 | D2 EE F2 D2 | A4 G2 F2 | %33
w: ha\- * *|be, so|fra- ge ich nichts nach|Hirn- mel und|Er\--|den, so|fra- ge ich nichts nach|Hirn- mel und|
 (F2 ED E4) | FDDD E4 | D4 Cccc | dBBB c4 | z CCC C2 (D2- | D2 ^C=B, C4) | D8 | z4 F2 FF | %41
w: Er\- * * *|den, wann ich nur dich|ha- be, wann ich nur|dich, wann ich nur dich,|wann ich nur dich ha\-||be,|wann mir gleich|
 F2 F2 F4- | F4 E2 E2 | D4 DEFG | E4 FGAB | A4 z4 | FGAB G4 | z4 DEFG | E8 | z8 | z4 EFGE | %51
w: Leib und See\-|* le ver-|schmacht, so bist du doch,|Gott, so bist du doch,|Gott,|so bist du doch, Gott,|so bist du doch,|Gott,||so bist du doch.|
 F2 AB cABc | d2 B2 A4 | G4 GABc | A4 z4 | z2 FG AFGA | B2 GA BGAB | c2 G4 ^F2 | G4 DEFG | %59
w: Gott, all- zeit mei- nes Her- zens|Trost und mein|Theil, so bis du doch,|Gott,|all- zeit mei- nes Her- zens|Trost, all- zeit mei- nes Her- zens|Trost und mein|Theil, so bist du doch,|
 E2 CD ECDE | F2 DE FDEF | G2 F4 E2 | F4 z4 | z4 DEFG | E4 z4 | z2 FG AFGA | B2 d2 c4 | B4 FGAB | %68
w: Gott, all- zeit mei- nes Her- zens|Trost, all- zeit mei- nes Her- zens|Trost und mein|Theil,|so bist du doch,|Gott,|all- zeit mei- nes Her- zens|Trost und mein|Theil, so bist du doch,|
 G2 Bc dBcd | _e2 c4 =B2 | c4 z4 | z2 AB cA=Bc | d4 f2 f2 | e4 E^FGA | ^F2 FG AFGA | B4 A4 | G8 | %77
w: Gott, all- zeit mei- nes Her- zens|Trost und mein|Theil,|all- zeit mei- nes Her- zens|Trost und mein|Theil, so bist du doch,|Gott, all- zeit mei- nes Her- zens|Trost un|mein|
 !fermata!^F8 |] %78
w: Theil.|
V:3
[K:F]"^Herr, wenn ich nur dich, SWV 321""^Psalm 73:25-26""^Heinrich Schütz\n(1585-1672)" A4 z AAA | %1
w: Herr, wann ich nur|
 BGGG A4 | G8 | F8 | c4 z ccc | dBBB c4 | A8 | G4 z2 C2 | D2 EE F2 G2 | A4 G2 F2 | E8 | D4 z2 E2 | %12
w: dich, wann ich nur dich|ha-|be,|Herr, wann ich nur|dich, wann ich nur dich|ha-|ne, so|fra- ge ich nichts nach|Him- mel und|Er\--|den, so|
 F2 GG A2 B2 | c4 B2 A2 | G8 | F4 z GGG | AFFF G4 | E8 | D8 || d4 z ddd | Gccc F4 | c8 | F8 | %23
w: fra- ge ich nichts nach|Him- mel und|Er-|den, wann ich nur|dich, wenn ich nur dich|ha-|be.|Herr, wann ich nur|dich, wann ich nur dich|ha-|be,|
 F4 z FFF | BGGG A4 | d8 | G4 z4 | z8 | z8 | z8 | z8 | z8 | z8 | c4 z ccc | dBBB c4 | B4 AAAA | %36
w: Herr, wann ich nur|dich, wann uch nur dich|ha-|be,|||||||Herr, wann ich nur|dich, wann ich nur dich|ha- be, wann ich nur|
 BGGG AFFF | GEEE F4 | A8 | D8 | z8 | d2 dd d2 c2 | =B4 c4- | c4 =B2 B2 | c4 z4 | F2 FF F4- | %46
w: dich, wann ich nur dich, wann ich nur|dich, wann ich nur dich|ha-|be,||wann mir gleich Leib und|See\- *|* le ver-|schmacht,|wann mir gleich Leib|
 F4 E4 | D4 D2 D2 | C4 GABc | A2 FG AFGA | B2 A2 G4 | F4 z4 | z4 ABcd | =B4 z4 | z2 FG AFGA | %55
w: * und|See- le ver-|schmacht, so bist du doch,|Gott, all- zeit mei- nes Her- zens|Trost und mein|Theil,|so bis du doch,|Gott,|all- zeit mei- nes Her- zens|
 B6 A2 | G4 G4 | z4 ABcd | =B2 GA BGAB | c2 A2 G4 | F4 z4 | z4 GABc | A2 FG AFGA | B2 GA BGAB | %64
w: Trost und|mein Theil,|so bist du doch,|Gott, all- zeit mein- nes Her- zens|Trost un mein|Theil,|so bist du doch,|Gott, all- zeit mei- nes Her- zens|Trost, all- zeit mei- nes Her- zens|
 c2 AB cABc | d2 d4 c2 | B4 cd_ef | d2 Bc dBcd | _e2 e4 d2 | c4 d!courtesy!=efg | e2 cd ecde | %71
w: Trost, all- zeit mei- nes Her- zens|Trost und mein|Theil, so bist du doch.|Gott, all- zeit mei- nes Her- zens|Trost und mein|Theil, so bist du doch,|Gott, all- zeit mei- nes Her- zens|
 f2 f4 e2 | d4 d4 | A8 | D2 DE ^FDEF | G4 ^F4 | G8 | !fermata!D8 |] %78
w: Trost, Her- zens|Trost und|mein|Theil, all- zeit mei- nes Her- zens|Trost un|mein|Theil.|
V:4
[K:F] D,8 | G,,4 F,,4 | x4- x4 | F,,8 | F,8 | B,,4 A,,4 | x2- x4 x2 | G,,4 F,,4 | %8
w: ||4||||||
w: ||||||||
 B,,2 A,,2 D,2 C,2 | F,4 C,2 D,2 | x2- x4 x2 | D,4 A,,4 | D,2 C,2 F,,2 G,,2 | A,,4 B,,2 F,,2 | %14
w: ||||||
w: ||||||
 x2- x4 x2 | F,,4 E,,4 | D,,4 G,,4 | x2- x4 x2 | D,,8 || D,6 D,D, | G,,C, C,2 F,,4 | x4- x4 | %22
w: 3|||||||4|
w: ||||||||
 F,,8 | F,6 F,,F,, | B,,G,, G,,2 A,,4 | x2- x4 x2 | G,,4 F,,4 | B,,2 A,,2 D,2 C,2 | F,,4 G,,4 | %29
w: |||||||
w: |||||||
 x2- x4 x2 | D,4 A,,4 | D,2 C,2 F,,2 G,,2 | F,,4 G,,2 A,,2 | x4- x4 | D,B,, B,,2 C,4 | %35
w: |||* * 6|4||
w: ||||||
 B,,4 A,,2 A,,A,, | B,,G,, G,,2 A,,F,, F,,2 | G,,E,, E,,2 x2- x2 | x4- x4 | D,,8 | D,8 | D,6 C,2 | %42
w: ||* 6 6 5|4|||* 6|
w: |||||||
 =B,,4 C,4- | C,4 =B,,4 | C,4 F,,4 | F,2 F,F, F,4- | F,4 E,4 | D,6 D,2 | C,4 C,4 | %49
w: 6 *|4 *||* * * 5|6 *|* 6||
w: |2 *||||||
 F,2 E,2 D,2 C,2 | B,,4 C,4 | F,4 F,,4 | B,,2- B,,C, D,4 | G,4 C,4 | F,8 | B,,6 x-x | G,,8 | %57
w: |||* 6 * *|||* 5||
w: ||||||||
 C,4 x2- x2 | G,8 | x2- x2 x2 x2 | F,2 E,2 D,2 C,2 | x2- x2 x2- x2 | F,,8 | G,,8 | A,,8 | D,6 x-x | %66
w: * 4||||6 4||||* 5|
w: ||3|||||||
 B,,4 x2- x2 | B,,8 | _E,6 x-x | C,4 x2- x2 | C,8 | F,6 x-x | D,8 | x4- x4 | D,4 D,4 | G,,4 ^F,,4 | %76
w: * 4||* 5|* 4||* 5||4|||
w: ||||||||||
 G,,8 | !fermata!D,8 |] %78
w: ||
w: ||

